images/hexo.svg

<svg xmlns="http://www.w3.org/2000/svg" width="200" height="200"><path d="m100 5 80 55v80l-80 55-80-55V60Zm15 45h-15v70q-5 20-25 10-10 0-7 12 42 16 47-22Z" fill="#1e3e3f"/></svg>

<svg xmlns="http://www.w3.org/2000/svg" width="200" height="200" viewBox="0 0 200 200">
  <path d="M100 5 
           L180 60 
           L180 140 
           L100 195 
           L20 140 
           L20 60 
           Z
           M115 50 
           L100 50
           L100 120
           Q95 140 75 130
           Q65 130 68 142
           Q110 158 115 120
           L115 120
           Z" 
         fill="#1e3e3f"  />
</svg>
